!!!OTL@@DE: Der J&auml;ger aus Kurpfalz
!!!ONB: Volksweise
!!!ONB: Volksleid
!!!OMD: Munter
!!!OCL: Erk, Ludwig
!!!GCO: Deutscher Liederschatz, Band 1
**kern	**kern	**kern
*staff3	*staff2	*staff1
*Ipiano	*Ipiano	*Ivox
*>[A,B,B]	*>[A,B,B]	*>[A,B,B]
*>A	*>A	*>A
*clefF4	*clefG2	*clefG2
*k[f#]	*k[f#]	*k[f#]
*G:	*G:	*G:
*M2/4	*M2/4	*M2/4
*MM112	*MM112	*MM112
8r	8d/	8d/
=1	=1	=1
4r	(8g/L	8g/
.	8b/)	8b\
8G\ 8d\L	8g/ 8b/	8b\
8G\ 8d\J	8g/ 8b/J	8b\
=2	=2	=2
4G\ 4d\	4.g/ 4.b/	4.b\
4r	.	.
.	8b\ 8dd\	8dd\
=3	=3	=3
4F#\ 4d\	8b\ (8dd\L	8dd\
.	8a\ 8cc\J)	8cc\
4G\ 4d\	8a'/ 8cc'/L	8cc\
.	8g'/ 8b'/J	8b\
=4	=4	=4
4D\ 4d\	(8g/ 8b/L	8b\
.	8f#/) 8a/J	8a/
4r	8f#'/ 8a'/L	8a/
.	8e'/ 8g'/J	8g/
=5	=5	=5
4r	(8d/ 8f#/L	8f#/
.	8a/J)	8a/
8D\ 8d\L	8f#/ 8a/L	8a/
8D\ 8d\J	8f#/ 8a/J	8a/
=6	=6	=6
4D\ 4d\	4.f#/ 4.a/	4.a/
4r	.	.
.	8dd\	8dd\
=7	=7	=7
4G\ 4d\	8g/ 8b/L	8b\
.	8g/ 8b/J	8b\
4D\ 4c\	8f#/ 8a/L	8a/
.	8f#/ 8a/J	8a/
=8	=8	=8
4G\ 4B\	4d/ 4g/	4g/
8r	8r	8r
=!|:	=!|:	=!|:
*>B	*>B	*>B
8G\	8g/ 8b/	8b\
=9	=9	=9
8G'/L	4.b\ 4.dd\	4.dd\
8GG'/	.	.
8BB'/	.	.
8D'/J	8a\ 8cc\	8cc\
=10	=10	=10
8G\L	4.g/ 4.b/	4b'\
8B\	.	.
8d\	.	8r
8G\J	8b\ 8dd\	8dd\
=11	=11	=11
4G\ 4d\	8b\ (8gg\L	8gg\
.	8dd\J)	8dd\
4G\ 4d\	8b\ (8dd\L	8dd\
.	8g\ 8b\J)	8b\
=12	=12	=12
4D\ 4d\	(8g/ 8b/L	8b\
.	8f#/) 8a/J	8a/
8D\L	8f#'/ 8a'/L	8a/
8D\J	8e'/ 8g'/J	8g/
=13	=13	=13
4D\	(8d/ 8f#/L	8f#/
.	8a/J)	8a/
8d\L	8f#/ 8a/L	8a/
8d\J	8f#/ 8a/J	8a/
=14	=14	=14
4.d\	4.f#/ 4.a/	4a/
.	.	8r
8F#\ 8d\	8a\ 8dd\	8dd\
=15	=15	=15
4G\ 4d\	8g/ 8b/L	8b\
.	8g/ 8b/J	8b\
4D\ 4c\	8f#/ 8a/L	8a/
.	8f#/ 8a/J	8a/
=16	=16	=16
4GG/ 4G/	4B/ 4d/ 4g/	4g/
8r	8r	8r
==:|!	==:|!	==:|!
*-	*-	*-
!!!ENC: Craig Stuart Sapp
!!!END: 2004/05/19/
!!!EFL: 017/651
